X:77
T: Der heimkehrende Braeutigam
N: Q0102E
O: Mitteleuropa, Deutschland / Frankreich, Lothringen, Kr. Forbach,
R: Ballade, Ehe - Geloebnis, Betrug
M: 3/4
L: 1/8
K: G
D2 | G2D2G2 | B2D2G2 | A4B2 | D4
BB | A3GF2 | G2E2A2 | D4
D2 | c2B2A2 | G2F2E2 | F4A2 | D4
G2 | E4EE | G2F2E2 | D4c2 | B4
c2 | B4AG | A2B2A2 | G4

@@@ Tune index: 1370
